X:41 
T:GB/7d/41 Gipsy Laddy
%%VWML:GB-7d-41-0
F:http://www.vwml.org/record/GB/7d/41
C:Transcribed by Simon Furey and Lewis Jones
L:1/8
M:4/4
I:linebreak $
K:Cmix
C2 | G2 GA B2 A2 | G2 E2 !fermata!F2 EF | G2 c2 c2 dc | B2 G2 !fermata!c2 |$ (3GAB | "^(a)" c3 d B3 c | G2 GE F2 EF | GA BG A2 GF | E2 C2 C2 ||$ C2 | G2 GA B2 A2 |
G2 E2 !fermata!F2 EF | G2 c2 c2 dc | B2 G2 !fermata!c2 |$ (3GAB |"^(a) var." c2 dc B2 c2 | G2 GE F2 EF | GA BG A2 GF | E2 C2 C2 |]

